X:96
T: Das Grab ist tief und stille (1-20), S. 54
N: K0095
O: Luxemburg
S: KINTZELE, Guillaume: An der Ucht, Bd. 1, Luxemburg 1926]
N: in der Quelle mit einer 2. Stimme versehen
R: ???]
M: 4/4
L: 1/16
K: D
A4 | A6F2F6D2 | D2C2C4z4
A4 | G4G4A2G2F2E2 | F8z4
D2B2 | B6B2d4c2B2 | B2A2A4z4
F2A2 | A6G2E4C4 | D8z4
D2B2 | B6B2d4c2B2 | B2A2A4z4
F2A2 | A6G2E4C4 | D8z4

@@@ Tune index: 8150
